X: 1134
T: Mrs. Galvin's Highland Fling
M: 4/4
L: 1/8
R: highland fling
K: D Major
|: (3edc |
(3ddd c>A G>EF>E | D2 F>A D>A (3FGA | 
d2 c>A G>E (3EEE |[1 (3Bcd e>g f>d :|[2 (3Bcd e>c d3 A ||
f>g (3agf dcdA | f>ga>f g>ba>g | 
f>ga>f d2 d>A | (3Bcd e>f g2 (3gfe |
f>ga>f (3ddd d>A | f>ga>f g2 (3bag | 
f>d (3edc d>BA>d | (3Bcd e>f g2 |]
